aliba_games/img/icon-bitcoin.svg

<svg width="16" height="16" viewBox="0 0 16 16" fill="none" xmlns="http://www.w3.org/2000/svg">
<g style="mix-blend-mode:luminosity" clip-path="url(#clip0_152_1764)">
<path d="M15.7597 9.93529C14.6912 14.221 10.3505 16.8292 6.06429 15.7605C1.77984 14.692 -0.828394 10.351 0.240585 6.06559C1.30857 1.77939 5.64928 -0.829087 9.93425 0.239393C14.2202 1.30789 16.8282 5.64934 15.7597 9.93529Z" fill="#F7931A"/>
<path d="M5.36854 9.34734C5.32504 9.45535 5.2148 9.61734 4.96629 9.55583C4.97506 9.56859 4.32831 9.39659 4.32831 9.39659L3.89258 10.4013L5.0348 10.6861C5.2473 10.7393 5.45555 10.7951 5.66055 10.8476L5.29729 12.3061L6.17403 12.5248L6.53378 11.0818C6.77329 11.1468 7.00577 11.2068 7.23327 11.2633L6.87476 12.6996L7.75252 12.9183L8.11576 11.4626C9.61251 11.7458 10.738 11.6316 11.2117 10.2778C11.5935 9.18785 11.1927 8.55908 10.4052 8.14909C10.9787 8.01684 11.4107 7.6396 11.526 6.86035C11.6852 5.79586 10.8747 5.22362 9.76648 4.84187L10.126 3.39986L9.24822 3.18112L8.89824 4.5851C8.66749 4.5276 8.43048 4.47335 8.195 4.4196L8.54749 3.00634L7.67025 2.7876L7.3105 4.22908C7.11949 4.18559 6.93202 4.14257 6.75 4.09733L6.751 4.09282L5.54051 3.79058L5.30699 4.72807C5.30699 4.72807 5.95825 4.87732 5.94449 4.88657C6.3 4.97532 6.36424 5.21055 6.3535 5.39707L5.36854 9.34734ZM9.52049 9.67259C9.24925 10.7626 7.41402 10.1733 6.81902 10.0256L7.30103 8.09335C7.896 8.24184 9.80398 8.53583 9.52049 9.67259ZM9.79198 6.84461C9.54449 7.83611 8.017 7.33237 7.52151 7.20887L7.95851 5.45637C8.454 5.57987 10.0497 5.81036 9.79198 6.84461Z" fill="white"/>
</g>
<defs>
<clipPath id="clip0_152_1764">
<rect width="16" height="16" fill="white"/>
</clipPath>
</defs>
</svg>

<svg width="16" height="16" fill="none" xmlns="http://www.w3.org/2000/svg"><g style="mix-blend-mode:luminosity" clip-path="url(#clip0_152_1764)"><path d="M15.76 9.935A7.998 7.998 0 1 1 .24 6.065a7.998 7.998 0 0 1 15.52 3.87z" fill="#F7931A"/><path d="M5.369 9.347c-.044.108-.154.27-.403.209.01.013-.638-.16-.638-.16l-.435 1.005 1.142.285c.212.053.42.11.626.162l-.364 1.458.877.219.36-1.443c.24.065.472.125.7.181l-.36 1.437.879.218.363-1.455c1.497.283 2.622.169 3.096-1.185.382-1.09-.02-1.719-.807-2.129.574-.132 1.006-.51 1.121-1.289.16-1.064-.651-1.636-1.76-2.018l.36-1.442-.878-.219-.35 1.404c-.23-.057-.468-.112-.703-.165l.352-1.414-.877-.218-.36 1.441a29.382 29.382 0 0 1-.56-.132l.001-.004-1.21-.302-.234.937s.651.15.637.159c.356.088.42.324.41.51l-.985 3.95zm4.151.326c-.27 1.09-2.106.5-2.701.353l.482-1.933c.595.149 2.503.443 2.22 1.58zm.272-2.828c-.248.991-1.775.487-2.27.364l.437-1.753c.495.124 2.09.354 1.833 1.389z" fill="#fff"/></g><defs><clipPath id="clip0_152_1764"><path fill="#fff" d="M0 0h16v16H0z"/></clipPath></defs></svg>
